svg/white/drop.svg

<svg height="32" viewBox="0 0 32 32" width="32" xmlns="http://www.w3.org/2000/svg"><path d="m16 32c-8.836556 0-16-7.163444-16-16s7.163444-16 16-16 16 7.163444 16 16-7.163444 16-16 16zm7.1342697-14.5333333c-.5514982-2.4265918-2.264045-5.102809-2.264045-5.102809 1.9737828 5.3872659 1.2132959 9.4509363.690824 11.755618 0 0-.690824 2.577528.7953183.429588 1.8518727-2.6878277.7779027-7.082397.7779027-7.082397zm-4.8764045-9.55543074c1.0275281 3.65730334 1.4919475 6.76310864 1.6370786 9.35224714.2554307 4.4119851-.4179775 7.3146068-.835955 8.8471911-.1335206.4992509.4237827.8707865.7488764.4934457.0058052-.0058053.0058052-.0058053.0058052-.0058053.8127341-.9288389 1.1958802-3.1058052 1.3758427-5.0157303.0174157-.2089888.0348315-.4179776.0522472-.6269663.1683521-2.2988764.0696629-4.6209738-.4702247-6.844382-.9926966-4.1043072-2.5136704-6.20000004-2.5136704-6.20000004zm-1.8402622 6.44382024c-.2496255-6.00842699-.7024345-11.34344571-.7024345-11.34344571s-.4586142 5.06797752-.7082397 10.94288391c-.0406367.9520599-.0754681 1.9215356-.1044943 2.8968165-.0406367 1.4164794-.0580525 2.838764-.0580525 4.2146067.0058053 2.4440075.0986892 4.7370787.3192884 6.5657303.0870787.7256555 1.0275281.7256555 1.1146068 0 .1509363-1.2481273.2380149-2.7807116.2728464-4.4642322.0348315-1.7125468.023221-3.5760299-.023221-5.4627341-.0290262-1.1146067-.0638577-2.2408239-.1102996-3.3496254zm-7.01853933 7.2391386c-.12191011-.9926967-.1741573-2.1363296-.09288389-3.4134832.05805243-.8940075.18576779-1.8518726.40636704-2.8735955.20318352-.9346442.48183518-1.9157303.85917598-2.9490637 0 0-1.20749059 1.8867042-1.91573029 3.9243446-.13932584.3889513-.25543071.7895131-.34250936 1.1784644 0 0-.2264045 1.0217229-.26123596 2.3859551-.02322097.9462547.05224719 2.0666666.35411985 3.123221.15674157.5514981.37734083 1.0855805.67921348 1.5732209 0 0 1.48614228 2.2117978.79531836-.429588-.17415731-.6792135-.3599251-1.526779-.48183521-2.5194756zm2.11891383-1.1842697c-.0464419-1.0681648-.0348314-2.264045.0580525-3.5876405.0290262-.4121722.0638576-.8417603.1102996-1.2771535.0464419-.4411985.1044944-.8882023.168352-1.358427.261236-1.8808989.6850188-3.9649813 1.3294008-6.27546814 0 0-1.526779 2.09569284-2.5194757 6.20000004-.0522471.2205992-.0986891.4411985-.145131.6559925-.1799626.8940075-.2960675 1.7996254-.3541199 2.7168539-.0696629 1.1494382-.0522472 2.3104869.0290262 3.4657303.0174158.2089888.0348315.4237828.0522472.6327716.1799626 1.9099251.5573034 4.0868914 1.3758427 5.0157303 0 0 0 0 .0058053.0058053.3250936.3715355.8882022 0 .7488764-.4934457-.3018727-1.1320225-.7488764-3.0129214-.8591761-5.7007491zm2.5368914.2264045c-.0290262-1.1958802-.0406367-2.5310862-.0174157-3.9940075.0116105-.8765918.0348314-1.7996255.0754681-2.7691011.0986892-2.50206.5689139-6.11872662.8940075-9.18389516 0 0-1.6022472 3.31479401-2.3337078 9.29419476-.0986892.8185393-.1915731 1.7009363-.261236 2.6529963-.0174157.2322097-.0348314.4644194-.0522472.7082397 0 0-.0870786 1.265543-.0522472 2.9722846.046442 2.194382.2902622 5.1202247 1.1958802 7.0359551.0290262.0580524.0638577.1102996.1102996.1509363 0 0 .0058053.0058052.0058053.0058052.3425093.3250937.8707865.0174158.8243445-.4876404-.1102996-1.097191-.3134831-3.2741573-.3889513-6.3857678zm3.3205993 0c-.0754682 3.1116105-.2728465 5.2885768-.3889513 6.3857678-.046442.5050562.4818352.8127341.8243445.4876404 0 0 .0058053-.0058052.0058053-.0058052.0464419-.0406367.0812734-.0928839.1102996-.1509363.905618-1.9157304 1.1494382-4.8415731 1.1958801-7.0359551.0348315-1.7067416-.0522471-2.9722846-.0522471-2.9722846-.0174158-.2438203-.0348315-.47603-.0522472-.7082397-.069663-.95206-.1625469-1.834457-.261236-2.6529963-.7314607-5.97940075-2.3337079-9.29419476-2.3337079-9.29419476.3250937 3.06516854.7953184 6.68183516.8940075 9.18389516.0406367.9694756.0638577 1.8925093.0754682 2.7691011.023221 1.4629213.0116105 2.7981273-.0174157 3.9940075z" fill="#fff"/></svg>

<?xml version="1.0" encoding="UTF-8"?>
<svg width="32px" height="32px" viewBox="0 0 32 32" version="1.1" xmlns="http://www.w3.org/2000/svg" xmlns:xlink="http://www.w3.org/1999/xlink">
    <!-- Generator: Sketch 50 (54983) - http://www.bohemiancoding.com/sketch -->
    <title>white/drop</title>
    <desc>Created with Sketch.</desc>
    <defs></defs>
    <g id="white/drop" stroke="none" stroke-width="1" fill="none" fill-rule="evenodd">
        <path d="M16,32 C7.163444,32 0,24.836556 0,16 C0,7.163444 7.163444,0 16,0 C24.836556,0 32,7.163444 32,16 C32,24.836556 24.836556,32 16,32 Z M23.1342697,17.4666667 C22.5827715,15.0400749 20.8702247,12.3638577 20.8702247,12.3638577 C22.8440075,17.7511236 22.0835206,21.814794 21.5610487,24.1194757 C21.5610487,24.1194757 20.8702247,26.6970037 22.356367,24.5490637 C24.2082397,21.861236 23.1342697,17.4666667 23.1342697,17.4666667 Z M18.2578652,7.91123596 C19.2853933,11.5685393 19.7498127,14.6743446 19.8949438,17.2634831 C20.1503745,21.6754682 19.4769663,24.5780899 19.0589888,26.1106742 C18.9254682,26.6099251 19.4827715,26.9814607 19.8078652,26.6041199 C19.8136704,26.5983146 19.8136704,26.5983146 19.8136704,26.5983146 C20.6264045,25.6694757 21.0095506,23.4925094 21.1895131,21.5825843 C21.2069288,21.3735955 21.2243446,21.1646067 21.2417603,20.955618 C21.4101124,18.6567416 21.3114232,16.3346442 20.7715356,14.111236 C19.778839,10.0069288 18.2578652,7.91123596 18.2578652,7.91123596 Z M16.417603,14.3550562 C16.1679775,8.34662921 15.7151685,3.01161049 15.7151685,3.01161049 C15.7151685,3.01161049 15.2565543,8.07958801 15.0069288,13.9544944 C14.9662921,14.9065543 14.9314607,15.87603 14.9024345,16.8513109 C14.8617978,18.2677903 14.844382,19.6900749 14.844382,21.0659176 C14.8501873,23.5099251 14.9430712,25.8029963 15.1636704,27.6316479 C15.2507491,28.3573034 16.1911985,28.3573034 16.2782772,27.6316479 C16.4292135,26.3835206 16.5162921,24.8509363 16.5511236,23.1674157 C16.5859551,21.4548689 16.5743446,19.5913858 16.5279026,17.7046816 C16.4988764,16.5900749 16.4640449,15.4638577 16.417603,14.3550562 Z M9.39906367,21.5941948 C9.27715356,20.6014981 9.22490637,19.4578652 9.30617978,18.1807116 C9.36423221,17.2867041 9.49194757,16.328839 9.71254682,15.3071161 C9.91573034,14.3724719 10.194382,13.3913858 10.5717228,12.3580524 C10.5717228,12.3580524 9.36423221,14.2447566 8.65599251,16.282397 C8.51666667,16.6713483 8.4005618,17.0719101 8.31348315,17.4608614 C8.31348315,17.4608614 8.08707865,18.4825843 8.05224719,19.8468165 C8.02902622,20.7930712 8.10449438,21.9134831 8.40636704,22.9700375 C8.56310861,23.5215356 8.78370787,24.055618 9.08558052,24.5432584 C9.08558052,24.5432584 10.5717228,26.7550562 9.88089888,24.1136704 C9.70674157,23.4344569 9.52097378,22.5868914 9.39906367,21.5941948 Z M11.5179775,20.4099251 C11.4715356,19.3417603 11.4831461,18.1458801 11.57603,16.8222846 C11.6050562,16.4101124 11.6398876,15.9805243 11.6863296,15.5451311 C11.7327715,15.1039326 11.790824,14.6569288 11.8546816,14.1867041 C12.1159176,12.3058052 12.5397004,10.2217228 13.1840824,7.91123596 C13.1840824,7.91123596 11.6573034,10.0069288 10.6646067,14.111236 C10.6123596,14.3318352 10.5659176,14.5524345 10.5194757,14.7672285 C10.3395131,15.661236 10.2234082,16.5668539 10.1653558,17.4840824 C10.0956929,18.6335206 10.1131086,19.7945693 10.194382,20.9498127 C10.2117978,21.1588015 10.2292135,21.3735955 10.2466292,21.5825843 C10.4265918,23.4925094 10.8039326,25.6694757 11.6224719,26.5983146 C11.6224719,26.5983146 11.6224719,26.5983146 11.6282772,26.6041199 C11.9533708,26.9756554 12.5164794,26.6041199 12.3771536,26.1106742 C12.0752809,24.9786517 11.6282772,23.0977528 11.5179775,20.4099251 Z M14.0548689,20.6363296 C14.0258427,19.4404494 14.0142322,18.1052434 14.0374532,16.6423221 C14.0490637,15.7657303 14.0722846,14.8426966 14.1129213,13.873221 C14.2116105,11.371161 14.6818352,7.75449438 15.0069288,4.68932584 C15.0069288,4.68932584 13.4046816,8.00411985 12.673221,13.9835206 C12.5745318,14.8020599 12.4816479,15.6844569 12.411985,16.6365169 C12.3945693,16.8687266 12.3771536,17.1009363 12.3597378,17.3447566 C12.3597378,17.3447566 12.2726592,18.6102996 12.3074906,20.3170412 C12.3539326,22.5114232 12.5977528,25.4372659 13.5033708,27.3529963 C13.532397,27.4110487 13.5672285,27.4632959 13.6136704,27.5039326 C13.6136704,27.5039326 13.6194757,27.5097378 13.6194757,27.5097378 C13.961985,27.8348315 14.4902622,27.5271536 14.4438202,27.0220974 C14.3335206,25.9249064 14.1303371,23.7479401 14.0548689,20.6363296 Z M17.3754682,20.6363296 C17.3,23.7479401 17.1026217,25.9249064 16.9865169,27.0220974 C16.9400749,27.5271536 17.4683521,27.8348315 17.8108614,27.5097378 C17.8108614,27.5097378 17.8166667,27.5039326 17.8166667,27.5039326 C17.8631086,27.4632959 17.8979401,27.4110487 17.9269663,27.3529963 C18.8325843,25.4372659 19.0764045,22.5114232 19.1228464,20.3170412 C19.1576779,18.6102996 19.0705993,17.3447566 19.0705993,17.3447566 C19.0531835,17.1009363 19.0357678,16.8687266 19.0183521,16.6365169 C18.9486891,15.6844569 18.8558052,14.8020599 18.7571161,13.9835206 C18.0256554,8.00411985 16.4234082,4.68932584 16.4234082,4.68932584 C16.7485019,7.75449438 17.2187266,11.371161 17.3174157,13.873221 C17.3580524,14.8426966 17.3812734,15.7657303 17.3928839,16.6423221 C17.4161049,18.1052434 17.4044944,19.4404494 17.3754682,20.6363296 Z" id="Combined-Shape" fill="#FFFFFF" fill-rule="nonzero"></path>
        <g id="Dropil-(DROP)" transform="translate(8.000000, 3.000000)">
            <g id="Group"></g>
        </g>
    </g>
</svg>
